X:466
T:Kadrilj
T:efter J. Bruun (SvL, Band 22 nr 514)
R:Kadrilj
C:Trad
M:2/4
A: S\"arsl\"ov, Sk\aane
S:http://www.smus.se/earkiv/fmk/browsevol.php?lang=sw&by=katalogid&katalogid=Ske+52&bildnr=00018
Z:Noterad i abc av Olle Paulsson 080924
L:1/16
Q:1/4=100
K:Bb
FGFE DEFE|D2dc B4|cdcB ABcB|A2gf f4|
f4 =efgf|d2Bc d2B2|Aceg f2A2|B4z4:|
K:F
|:cdcB ABcB|(Ac)fc a4|(ag)(gf) feed| dccB BAFA|
cdcB ABcB|(Ac)fc a4|agbg eceg|f4z4:|
K:Bb
|:d4 dedc|d2Bc d2B2|egce AcFA|BdFB DFB,F|
d4 dedc|d2Bc d2B2|egce AcFA|B4 z4:|
|:d2dd d2d2|d4d4|g4a4|b2ag f2=e2|
f4 =efgf|d4 (cd)_ec|Aceg f2A2|B4 z4:|
(:musicend:)

(:music:)
